X: 15544
T: Glenties, The
R: mazurka
M: 3/4
K: Gmajor
de|f2fedB|A2FAFA|B2GBGB|A2FAFA|fgfedB|A2FA FA|B2e2~f2|d3Ade|
f2fedB|A2FAFA|B2GBGB|A2FAFA|fgfedB|A2FA FA|B2e2~f2|D3Ade|
fdfagf|g2g2Bd|~e3a(3gfe f2fede|fdfagf|g2g2Bd|~e3a(3gfe|d3Ade|
fdfagf|g2g2Bd|~e3a(3gfe f2fede|fdfagf|g2g2Bd|~e3age|d3||

